X: 20983
M: 6/8
L: 1/8
K: F
V: 1 name="3"
[|\
g2c b2a | gfe fef | g2c b2a | gfe fef |\
dbb caa | Bgg Aff | BAG c2E | F3 "^D.C."F2 |]
f2e e2d | d2c c2B | ABc cBA | (A3 G2)"^D.C."z |]
f3 fd=B | cdc ceg | b3  age | fgf f3  |\
f2e d2c | d2c B2A | BAG c2E | F3 "^D.C."F2 |]


